src/shared/assets/icons/shater.svg

<svg width="74" height="74" viewBox="0 0 74 74" fill="none" xmlns="http://www.w3.org/2000/svg">
<path d="M42.6567 14.3689L44.5376 20.0115H38.895V23.7722C43.705 28.613 50.3648 33.2076 57.7339 33.2078V36.9998H53.9722C53.9722 45.0163 55.329 52.6633 57.7339 59.6316H44.5063C41.1765 56.3017 38.6174 52.2317 37.0142 47.7302C35.4109 52.2626 32.8518 56.3017 29.522 59.6316H16.2632C18.6681 52.6633 20.0249 45.0163 20.0249 36.9998H16.2632V33.238C23.6323 33.238 30.2612 28.6442 35.1021 23.8035V14.3689H42.6567ZM23.8179 36.9998C23.8179 43.4439 22.9852 49.7346 21.3511 55.8396H27.8569C32.5436 50.6596 35.1333 44.0298 35.1333 36.9998H23.8179ZM38.895 36.9998C38.895 44.0298 41.4847 50.6596 46.1714 55.8396H52.6772C51.0431 49.7654 50.2104 43.4439 50.2104 36.9998H38.895ZM37.0142 27.1951C34.8867 29.2917 32.2346 31.4503 29.1821 33.2078H44.8462C41.8245 31.4194 39.1725 29.2609 37.0142 27.1951Z" fill="#EC691F"/>
</svg>

<svg xmlns="http://www.w3.org/2000/svg" width="74" height="74" fill="none" viewBox="0 0 74 74"><path fill="#EC691F" d="m42.657 14.369 1.88 5.643h-5.642v3.76c4.81 4.841 11.47 9.436 18.839 9.436V37h-3.762c0 8.016 1.357 15.663 3.762 22.632H44.506c-3.33-3.33-5.889-7.4-7.492-11.902a31.76 31.76 0 0 1-7.492 11.902H16.263c2.405-6.969 3.762-14.616 3.762-22.632h-3.762v-3.762c7.37 0 13.998-4.594 18.84-9.434v-9.435zm-18.84 22.63c0 6.445-.832 12.736-2.466 18.84h6.506c4.687-5.18 7.276-11.81 7.276-18.84zm15.078 0c0 7.03 2.59 13.66 7.276 18.84h6.506A72.4 72.4 0 0 1 50.21 37zm-1.88-9.804c-2.128 2.097-4.78 4.255-7.833 6.013h15.664c-3.021-1.789-5.673-3.947-7.832-6.013"/></svg>
